build/img/sprite/icon-doc-pdf.svg

<svg width="24" height="24" viewBox="0 0 24 24" fill="none" xmlns="http://www.w3.org/2000/svg">
<path d="M3 1H17V4V5H18H21V23H3V1ZM19 2.41421L19.5858 3H19V2.41421Z" fill="white" stroke="#9BD2F4" stroke-width="2"/>
<mask id="path-2-inside-1" fill="white">
<rect y="8" width="24" height="12" rx="1"/>
</mask>
<rect y="8" width="24" height="12" rx="1" fill="white" stroke="#9BD2F4" stroke-width="4" mask="url(#path-2-inside-1)"/>
<path d="M4.96444 17C4.9111 17 4.86577 16.9813 4.82844 16.944C4.7911 16.9067 4.77244 16.8613 4.77244 16.808V11.6C4.77244 11.5413 4.78844 11.4933 4.82044 11.456C4.85777 11.4187 4.90577 11.4 4.96444 11.4H7.10844C7.74844 11.4 8.25244 11.552 8.62044 11.856C8.98844 12.1547 9.17244 12.5947 9.17244 13.176C9.17244 13.7573 8.98844 14.1973 8.62044 14.496C8.25777 14.7893 7.75377 14.936 7.10844 14.936H5.91644V16.808C5.91644 16.8613 5.89777 16.9067 5.86044 16.944C5.82844 16.9813 5.7831 17 5.72444 17H4.96444ZM7.06844 14.048C7.37777 14.048 7.6151 13.976 7.78044 13.832C7.94577 13.6827 8.02844 13.464 8.02844 13.176C8.02844 12.8987 7.94844 12.6827 7.78844 12.528C7.62844 12.368 7.38844 12.288 7.06844 12.288H5.90044V14.048H7.06844ZM10.2379 17C10.1845 17 10.1392 16.9813 10.1019 16.944C10.0645 16.9067 10.0459 16.8613 10.0459 16.808V11.6C10.0459 11.5413 10.0619 11.4933 10.0939 11.456C10.1312 11.4187 10.1792 11.4 10.2379 11.4H12.1899C13.7579 11.4 14.5579 12.1253 14.5899 13.576C14.6005 13.8853 14.6059 14.0933 14.6059 14.2C14.6059 14.3013 14.6005 14.5067 14.5899 14.816C14.5685 15.5627 14.3685 16.1147 13.9899 16.472C13.6112 16.824 13.0245 17 12.2299 17H10.2379ZM12.1899 16.08C12.6379 16.08 12.9605 15.9813 13.1579 15.784C13.3552 15.5813 13.4592 15.2507 13.4699 14.792C13.4805 14.472 13.4859 14.272 13.4859 14.192C13.4859 14.1067 13.4805 13.9093 13.4699 13.6C13.4592 13.1627 13.3472 12.84 13.1339 12.632C12.9259 12.424 12.5979 12.32 12.1499 12.32H11.1579V16.08H12.1899ZM15.8629 17C15.8095 17 15.7642 16.9813 15.7269 16.944C15.6895 16.9067 15.6709 16.8613 15.6709 16.808V11.6C15.6709 11.5413 15.6869 11.4933 15.7189 11.456C15.7562 11.4187 15.8042 11.4 15.8629 11.4H19.3349C19.3935 11.4 19.4415 11.4187 19.4789 11.456C19.5162 11.4933 19.5349 11.5413 19.5349 11.6V12.16C19.5349 12.2187 19.5162 12.2667 19.4789 12.304C19.4415 12.336 19.3935 12.352 19.3349 12.352H16.7669V13.872H19.1749C19.2335 13.872 19.2815 13.8907 19.3189 13.928C19.3562 13.9653 19.3749 14.0133 19.3749 14.072V14.632C19.3749 14.6907 19.3562 14.7387 19.3189 14.776C19.2815 14.808 19.2335 14.824 19.1749 14.824H16.7669V16.808C16.7669 16.8667 16.7482 16.9147 16.7109 16.952C16.6735 16.984 16.6255 17 16.5669 17H15.8629Z" fill="#2C8ECC"/>
</svg>

<svg width="240" height="240" viewBox="0 0 24 24" fill="none" xmlns="http://www.w3.org/2000/svg">
  <path d="M3 1h14v4h4v18H3V1zm16 1.41421L19.5858 3H19v-.58579z" fill="#fff" stroke="#9BD2F4" stroke-width="2"/>
  <rect x="1" y="9" width="22" height="10" rx="0.1" fill="#fff" stroke="#9BD2F4" stroke-width="2"/>
  <path d="M4.96444 17c-.05334 0-.09867-.0187-.136-.056-.03734-.0373-.056-.0827-.056-.136V11.6c0-.0587.016-.1067.048-.144.03733-.0373.08533-.056.144-.056h2.144c.64 0 1.144.152 1.512.456.368.2987.552.7387.552 1.32s-.184 1.0213-.552 1.32c-.36267.2933-.86667.44-1.512.44h-1.192v1.872c0 .0533-.01867.0987-.056.136-.032.0373-.07734.056-.136.056h-.76zm2.104-2.952c.30933 0 .54666-.072.712-.216.16533-.1493.248-.368.248-.656 0-.2773-.08-.4933-.24-.648-.16-.16-.4-.24-.72-.24h-1.168v1.76h1.168zM10.2379 17c-.0534 0-.0987-.0187-.136-.056-.0374-.0373-.056-.0827-.056-.136V11.6c0-.0587.016-.1067.048-.144.0373-.0373.0853-.056.144-.056h1.952c1.568 0 2.368.7253 2.4 2.176.0106.3093.016.5173.016.624 0 .1013-.0054.3067-.016.616-.0214.7467-.2214 1.2987-.6 1.656-.3787.352-.9654.528-1.76.528h-1.992zm1.952-.92c.448 0 .7706-.0987.968-.296.1973-.2027.3013-.5333.312-.992.0106-.32.016-.52.016-.6 0-.0853-.0054-.2827-.016-.592-.0107-.4373-.1227-.76-.336-.968-.208-.208-.536-.312-.984-.312h-.992v3.76h1.032zm3.673.92c-.0534 0-.0987-.0187-.136-.056-.0374-.0373-.056-.0827-.056-.136V11.6c0-.0587.016-.1067.048-.144.0373-.0373.0853-.056.144-.056h3.472c.0586 0 .1066.0187.144.056.0373.0373.056.0853.056.144v.56c0 .0587-.0187.1067-.056.144-.0374.032-.0854.048-.144.048h-2.568v1.52h2.408c.0586 0 .1066.0187.144.056.0373.0373.056.0853.056.144v.56c0 .0587-.0187.1067-.056.144-.0374.032-.0854.048-.144.048h-2.408v1.984c0 .0587-.0187.1067-.056.144-.0374.032-.0854.048-.144.048h-.704z" fill="#2C8ECC"/>
</svg>
